X:6
T:Din Tarrant's Favorite 
B:Terry "Cuz" Teahan "Sliabh Luachra on Parade" 1980
Z:Patrick Cavanagh
M:6/8
L:1/8
R:Jig
K:G
| d | eAA BAA | GBd dBd | egg dgg | BAB dBd | 
| eAA BAA | GBd dBd | egg dBB | AGG G2 :| 
| d | eaa a2g | egg ged | egg dgg | BAB dBd | 
| eaa a2g | ega ged | egg dBB | BAA A2 :|| 

